X:1
T:Title
%%score { 1 | 2 }
L:1/8
M:4/4
K:Ab
V:1 treble nm="Grand Piano"
V:2 bass 
V:1
 z4 z2[Q:1/4=100] [CE]2 | [Ec]3 [Ec] BF G>F | [CE]6 [EA]2 | [DF]3 [DG] [=DA]2 [Dc]2 |[M:3/4] B6 | %5
[M:1/4] E2 |[M:4/4] c3 c [Gd][EB] [_Ge]>[EGA] | [DFA]6 [FB]2 | c3 E E2 B2 |[M:3/4] [CA]6 | %10
[M:1/4] [Ec]2 |[M:4/4] [Fd]3 [Fd] [DF]2 [FA]2 | [Ec]6 [Ec]2 | [=Ec]3 [EG] A2 F2 |[M:3/4] B6 | %15
[M:1/4] E2 |[M:4/4] c3 c [Gd][EB] [_Ge]>[EGA] | [DFA]6 [FB]2 | c3 E E2 B2 |[M:3/4] [CA]6 |] %20
V:2
 z4 z2 [A,,A,]2 | [A,,A,]3 [A,,A,] [D,F,D][D,B,D] [E,B,D]>[E,G,D] | [A,,A,]6 [C,A,]2 | %3
 [D,A,]3 [D,G,] [B,,F,]2 [B,,A,]2 |[M:3/4] [E,G,E]6 |[M:1/4] [E,G,]2 | %6
[M:4/4] [A,E]3 [A,E] [E,B,][G,D] [A,C]>C, | D,6 [=D,A,]2 | [E,A,E]3 [E,A,C] [E,G,D]2 [E,G,D]2 | %9
[M:3/4] [A,,A,]6 |[M:1/4] [A,,A,]2 |[M:4/4] [D,A,]3 [D,A,] [D,A,]2 [D,A,]2 | [A,,A,]6 [A,,A,]2 | %13
 [C,G,]3 [C,C] [F,CF]2 [=D,B,]2 |[M:3/4] [E,G,E]6 |[M:1/4] [E,G,]2 | %16
[M:4/4] [A,E]3 [A,E] [E,B,][G,D] [A,C]>C, | D,6 [=D,A,]2 | [E,A,E]3 [E,A,C] [E,G,D]2 [E,G,D]2 | %19
[M:3/4] [A,,A,]6 |] %20

